X: 021113
T: Bill the Weaver's (a)
S: "Johnny O'Leary of Sliabh Luachra" (#60)
Z: B.Black
L: 1/8
M: 6/8
R: jig
K: Edor
BdB EFA|B2A BAd|B2E EFG|A2G FED|
BEE EFA|B2A BAd|AFA DEF|A2G FED :|
g2e fed|e2B BAF|BAB EFG|A2G FED|
gfe fed|edB d2B|AFD DEF|A2G FED :|
E3 E/G/ED|E/F/GE E/G/ED|EGE EFG|A2G FED|
EGE E2D|E/F/GE EFG|AGA DEF|A2G FED :|
